!!!!SEGMENT: pl-kk--kk-i-502--004_anonim--przez-twoje-swiete-zmartwychwstanie.krn
!!!cenid: 18xx:1345
!!!COM: Anonim
!!!COM-rismid: pe30004985
!!!CDT:
!!!CNT:
!!!OTL: Przez twoje święte zmartwychwstanie
!!!PDT:
!!!AGN: Sacred
!!!SMS-siglum: PL-Kk
!!!SMS-shelfmark: Kk.I.502
!!!SMS-shelfwork: 004 W
!!!SMS-variant:
!!!SMS-altvar:
!!!NIFC-rismid: 1001137576
!!!URL-scan: http://repozytorium.nifc.pl/skany/pl-kk-nut--i-502
!!!ONB-nifc:
**kern	**kern	**text
*part1	*part1	*part1
*staff2	*staff1	*staff1
*I"Organo	*	*
*clefF4	*clefG2	*
*k[b-e-a-]	*k[b-e-a-]	*
*E-:	*E-:	*
*M2/1	*M2/1	*
=1	=1	=1
!	!LO:TX:a:t=P:problem:w źródle tekst słowny podpisany pod dolną pięciolinią	!
!	!LO:TX:a:t=P:problem:w źródle brak kluczy - nie ma ani wiolinowego, ani basowego	!
!LO:N:vis=4:xstem	!LO:N:vis=1	!
1G 1E-	1c	Przez
*	*^	*
!LO:N:vis=4:xstem	!LO:N:vis=1	!LO:N:vis=4:xstem	!
1BBn	1d	1G	two-
=2-	=2-	=2-	=2-
!LO:N:vis=4:xstem	!LO:N:vis=1	!LO:N:vis=4:xstem	!
1C	1e-	1G	-je
!LO:N:vis=4:xstem	!LO:N:vis=1	!LO:N:vis=4:xstem	!
1AA-	1f	1c 1F	Swię-
=3-	=3-	=3-	=3-
!LO:N:vis=4:xstem	!LO:N:vis=1	!LO:N:vis=4:xstem	!
1E- 1EE-	1g	1c 1G	-te
!LO:N:vis=4:xstem	!	!LO:N:vis=4:xstem	!
1E-	1c	1E-	Zmar-
=4-	=4-	=4-	=4-
!LO:N:vis=4:xstem	!	!LO:N:vis=4:xstem	!
1BBn	1d	1G	.
!LO:N:vis=4:xstem	!	!LO:N:vis=4:xstem	!
1C	1e-	1c 1G	-twych-
=5-	=5-	=5-	=5-
!LO:N:vis=4:xstem	!	!LO:N:vis=4:xstem	!
1FF	1f	1c 1A- 1F	-po-
!LO:N:vis=4:xstem	!	!LO:N:vis=4:xstem	!
1FF#X	1e-	1c 1An	-wsta-
=6-	=6-	=6-	=6-
!LO:N:vis=4:xstem	!m	!LO:N:vis=4:xste	!
1GG	1d,	1Bn	-nie
!LO:N:vis=4:xstem	!	!LO:N:vis=4:xstem	!
1F 1D	1f	1B	Bo-
=7-	=7-	=7-	=7-
!	!LO:N:vis=4:xstem	!	!
!LO:N:vis=4:xstem	!LO:N:vis=1	!LO:N:vis=4:xstem	!
1E-	1g	1B-y 1G	.
!	!LO:N:vis=4:xstem	!	!
!	!LO:N:vis=4:xstem	!	!
!	!LO:N:vis=4:xstem	!	!
!LO:N:vis=4:xstem	!LO:N:vis=1	!LO:N:vis=4:xstem	!
1C	1an	1f 1e- 1An	-ży
=8-	=8-	=8-	=8-
!LO:N:vis=4:xstem	!	!	!
1BB-y	1b-X	1d 1B-	Sy-
*	*v	*v	*
!LO:N:vis=4:xstem	!	!LO:N:vis=4:xstem
1D	1a-y	.
=9-	=9-	=9-
*	*^	*
!	!LO:N:vis=4:xstem	!	!
!LO:N:vis=4:xstem	!LO:N:vis=1	!LO:N:vis=4:xstem	!
1E-	1g	1en	.
!	!LO:N:vis=4:xstem	!	!
!LO:N:vis=4:xstem	!LO:N:vis=1	!LO:N:vis=4:xstem	!
1BB-	1f,	1d	-nu
!!LO:LB:g=original
=10-	=10-	=10-	=10-
!LO:N:vis=4:xstem	!LO:N:vis=2	!LO:N:vis=1	!
!	!LO:N:vis=2	!LO:N:vis=4:xstem	!
1F 1FF	1a-	1f 1c 1A-	od-
!LO:N:vis=4:xstem	!LO:N:vis=2	!LO:N:vis=4:xstem	!
1AA-	1f	1c	.
*	*v	*v	*
=11-	=11-	=11-
!LO:N:vis=4:xstem	!	!
1B- 1F 1BB-	1d,	-puść
*	*^	*
!LO:N:vis=4:xstem	!	!LO:N:vis=4:xstem	!
1E- 1EE-	1g	1e- 1B- 1G	nam
=12-	=12-	=12-	=12-
!	!LO:N:vis=4:xstem	!	!
!LO:N:vis=4:xstem	!LO:N:vis=1	!LO:N:vis=4:xstem	!
1E-	1c	1E-	na-
!	!LO:N:vis=4:xstem	!	!
!LO:N:vis=4:xstem	!LO:N:vis=1	!LO:N:vis=4:xstem	!
1BBn	1d	1G	-sze
=13-	=13-	=13-	=13-
!	!LO:N:vis=4:xstem	!	!
!	!LO:N:vis=4:xstem	!	!
!LO:N:vis=4:xstem	!LO:N:vis=1	!LO:N:vis=4:xstem	!
1C	1e-	1c 1G	zgrze-
!	!	!LO:N:vis=4:xstem	!
!LO:N:vis=4:xstem	!LO:N:vis=2	!	!
1FF	1f	1c 1A- 1F	-sze-
=14-	=14-	=14-	=14-
!	!	!LO:N:vis=4:xstem	!
!LO:N:vis=4:xstem	!LO:N:vis=2	!	!
1FF#X	1e-	1c 1An	-nie
!LO:N:vis=4:xstem	!	!LO:N:vis=4:xstem	!
1GG	1d,	1Gn	.
=15-	=15-	=15-	=15-
1F 1C 1FF	1an	1c 1A-	Tyś
*	*v	*v	*
!	!LO:N:vis=4:xstem	!
1ryy	1g	.
=16-	=16-	=16-
1ryy	1f	ten
*	*^	*
!LO:N:vis=4:xstem	!LO:N:vis=2	!LO:N:vis=4:xstem	!
1F 1FF	1an	1c 1A-	dzień
=17-	=17-	=17-	=17-
!	!	!LO:N:vis=4:xstem	!
!LO:N:vis=4:xstem	!LO:N:vis=2	!	!
1F 1D	1b-	1f 1B-	.
!	!	!LO:N:vis=4:xstem	!
!LO:N:vis=4:xstem	!LO:N:vis=2	!	!
1F 1AA-	1cc	1f 1c	sam
=18-	=18-	=18-	=18-
!	!	!LO:N:vis=4:xstem	!
!LO:N:vis=4:xstem	!LO:N:vis=2	!	!
1G 1GG	1b-X	1en 1c	.
!LO:N:vis=4:xstem	!	!LO:N:vis=4:xstem	!
1F 1FF	1a-	1f 1c	.
=19-	=19-	=19-	=19-
*^	*	*	*
!LO:N:vis=4:xstem	!	!LO:N:vis=2	!	!
1c	1C	1g	1e-	wsła-
*	*	*v	*v	*
!	!	!LO:N:vis=4	!
!LO:N:vis=4:xstem	!	!LO:N:vis=2	!
1G	1	1b-/	.
*v	*v	*	*
=20-	=20-	=20-
*	*^	*
!LO:N:vis=4:xstem	!	!LO:N:vis=4:xstem	!
1F 1FF	1an	1f 1c	-wił
!	!	!LO:N:vis=4:xstem	!
!!LO:LB:g=original
!LO:N:vis=4:xstem	!	!	!
1B- 1F 1BB-y	1b-	1f 1d	Ży-
*	*v	*v	*
=21-	=21-	=21-
*	*2\right	*
!LO:N:vis=4:xstem	!LO:N:vis=2	!
1ryy	1dd	-wo-
*	*^	*
!LO:N:vis=4:xstem	!	!LO:N:vis=4:xstem	!
1An 1F 1AAn	1cc	1f 1c	-teś
=22-	=22-	=22-	=22-
*	*	*^	*
!LO:N:vis=4	!	!LO:N:vis=4:xstem	!	!
1G\ 1GG\	1b-	1en	1c	nasz
!LO:N:vis=4	!	!LO:N:vis=4:xstem	!	!
1F\ 1FF\	1an	1f 1c	1ryy	na-
*	*	*v	*v	*
=23-	=23-	=23-	=23-
!	!	!LO:N:vis=4:xstem	!
1C 1CC	1g	1e- 1c	-pra-
!	!LO:N:vis=4:xstem	!	!
!	!LO:N:vis=4:xstem	!	!
!LO:N:vis=4:xstem	!LO:N:vis=4:xstem	!	!
1F#X	1a- 1d#X	1c	.
=24-	=24-	=24-	=24-
!	!LO:N:vis=4:xstem	!	!
!	!LO:N:vis=4:xstem	!	!
!LO:N:vis=4:xstem	!LO:N:vis=4:xstem	!LO:N:vis=4:xstem	!
1G	1b-	1en	.
!LO:N:vis=4:xstem	!	!LO:N:vis=4:xstem	!
1F 1FF	1a-	1f 1c	-wił.
=25-	=25-	=25-	=25-
!LO:N:vis=4:xstem	!	!LO:N:vis=4:xstem	!
1F 1FF	1a-	1f 1c	smier-
*	*v	*v	*
!LO:N:vis=4:xstem	!LO:N:vis=4:xstem	!
1ryy	1bn	.
=26-	=26-	=26-
*	*^	*
!LO:N:vis=4:xstem	!	!LO:N:vis=4:xstem	!
1E-X 1EE-X	1cc	1g 1c	-cis
!LO:N:vis=4	!	!LO:N:vis=4:xstem	!
[<1BBn [<1BBBn	1g	[1d [1G	wiecz-
=27-	=27-	=27-	=27-
1ryy	1f	1ryy	.
!LO:N:vis=4	!	!LO:N:vis=4:xstem	!
1BB-\] 1BBB-\]	1g	1d] 1G]	-nej
=28-	=28-	=28-	=28-
!LO:N:vis=4	!LO:N:vis=2	!LO:N:vis=4:xstem	!
1D\ 1DD\	1f	1Bn 1G	nas
!LO:N:vis=4	!LO:N:vis=2	!LO:N:vis=4:xstem	!
2C 2CC\	1e-X	2c 2G\	zba-
!	!LO:N:vis=4	!	!
!	!LO:N:vis=4:xstem	!	!
!LO:N:vis=4:xstem	!	!LO:N:vis=4:xstem	!
2F#X/	.	2c 2A-\	.
=29-	=29-	=29-	=29-
!LO:N:vis=4	!	!LO:N:vis=4:xstem	!
1G\ 1GG\	1d	1Bn 1G	-wił
!LO:N:vis=4	!	!LO:N:vis=4:xstem	!
1E-\ 1EE-\	1c	1G	swo-
=30-	=30-	=30-	=30-
!LO:N:vis=4	!	!LO:N:vis=4:xstem	!
1BBn\ 1BBBn\	1d	1G	-ją
!LO:N:vis=4	!	!LO:N:vis=4:xstem	!
!!LO:LB:g=original
1C\ 1CC\	1e-	1c 1G	swiętą
=31-	=31-	=31-	=31-
!LO:N:vis=4	!	!LO:N:vis=4:xstem	!
1AA-\ 1AAA-\	1f	1c 1F	.
!LO:TX:b:t=P:problem:dolna oktawa zapisana skrótem 8	!	!	!
!LO:N:vis=4:xstem	!	!LO:N:vis=4:xstem	!
1EE-\ 1EEE-\	1g,	1c 1G	.
=32-	=32-	=32-	=32-
!	!LO:N:vis=4	!	!
!	!LO:N:vis=4	!LO:N:vis=4:xstem	!
1ryy	1f	1d-X 1A-X 1F	moc
!LO:N:vis=4:xstem	!	!LO:N:vis=4:xstem	!
1FF 1FFF	1f	1c 1A- 1F	.
=33-	=33-	=33-	=33-
!LO:N:vis=4:xstem	!	!LO:N:vis=4:xstem	!
1FF#X 1FFF	1e-	1c 1An	zja-
!LO:N:vis=4:xstem	!	!LO:N:vis=4:xstem	!
1GG 1GGG	1d	1Bn	-wił
=34||	=34||	=34||	=34||
!	!	!LO:N:vis=4:xstem	!
1GG 1GGG	1e-X	1c 1A- 1F#X	.
!LO:N:vis=8	!LO:N:vis=8	!LO:N:vis=8:xstem	!
1GG 1GGG	1d	1B- 1G	.
*	*v	*v	*
=35-	=35-	=35-
!LO:N:vis=8	!LO:N:vis=8	!
1r	1r	.
1ryy	1ryy	.
==	==	==
*-	*-	*-
!!!system-decoration: {(s1,s2)}
!!!RDF**kern: > = above
!!!RDF**kern: < = below
!!!EED: Antoni Szymański
!!!EST: 2021-01-05
!!!ENC: Mateusz Solarz
!!!END: 2021-01-05
